X: 12225
T: Fair Maids Of Ireland
R: polka
M: 2/4
K: Aminor
|:A>B cd|ed d^d|ea ag|eg dg|
eg de|c2 cA|GE cE|ED dc:|
|:A2 A>G|AB cA|GE/G/ cG/E/|GE/G/ cG|
Ac/B/ AG|AB cA|GE/G/ cE|ED dc:|

